X: 39868
T: This Is My Love, Do You Like Her?
R: jig
M: 6/8
K: Adorian
|:AAA AGA|c3 (c2d)|eee ede|ggg (e2a)|
ged (c2e)|dBA GAB|c2A BGB|1 c2A A2 E:|2 c2A A2 g||
|:a3 age|ggg ged|a3 age|g3 (e2a)|
ged (c2e)|dBA GAB|c2A BGB|1 c2A A2 g:|2 c2A A2 E||

